img/manaSymbols/old/oldu.svg

﻿<?xml version="1.0" encoding="utf-8"?>
<svg width="600" height="600" viewBox="0 0 600 600" version="1.1" xmlns="http://www.w3.org/2000/svg" xml:space="preserve" style="fill-rule: evenodd; clip-rule: evenodd; stroke-linejoin: round; stroke-miterlimit: 2;" preserveAspectRatio="xMidYMid meet" zoomAndPan="magnify" contentScriptType="application/ecmascript" contentStyleType="text/css">
  <g id="layer1" transform="matrix(1,0,0,1,55.1373,192.501)">
    <circle cx="-265" cy="365.068" r="50" transform="matrix(6,0,0,6,1834.86,-2082.91)" />
    <path d="M299.997 0c165.575 0 300 134.424 300 300 0 165.574-134.425 300-300 300-165.574 0-300-134.426-300-300 0-165.576 134.426-300 300-300zm-5.394 34.285s-5.813 120.125 55.114 187.39c60.928 67.262 82.645 151.57 83.774 178.57 1.13 26.998.314 141.407-116.84 165.342-128.22 4.572-140.454-114.455-147.707-149.91-7.253-35.457-.576-116.27 35.273-176.367 30.317-61.018 36.14-76.738 39.682-97 5.388-22.106.915-41.638 50.705-108.025zm24.25 251.32s35.05 41.044 41.887 68.343c6.837 27.3 2.555 64.67-11.023 68.342-13.578 3.67-12.66-20.25-11.022-26.455 1.638-6.204-.46-53.24-2.205-57.32-1.748-4.077-21.13-38.936-17.637-52.91z" style="fill: rgb(210, 240, 241);" transform="matrix(1,0,0,1,-55.1373,-192.501)" />
  </g>
</svg>

<?xml version="1.0" encoding="UTF-8" standalone="no"?>
<!DOCTYPE svg PUBLIC "-//W3C//DTD SVG 1.1//EN" "http://www.w3.org/Graphics/SVG/1.1/DTD/svg11.dtd">
<svg width="600" height="600" viewBox="0 0 600 600" version="1.1" xmlns="http://www.w3.org/2000/svg" xmlns:xlink="http://www.w3.org/1999/xlink" xml:space="preserve" xmlns:serif="http://www.serif.com/" style="fill-rule:evenodd;clip-rule:evenodd;stroke-linejoin:round;stroke-miterlimit:2;">
    <g id="layer1" transform="matrix(1,0,0,1,55.1373,192.501)">
        <g transform="matrix(6,0,0,6,1834.86,-2082.91)">
            <circle cx="-265" cy="365.068" r="50"/>
        </g>
        <g transform="matrix(1,0,0,1,-55.1373,-192.501)">
            <path d="M299.997,-0.001C465.572,-0.001 599.997,134.424 599.997,299.999C599.997,465.574 465.572,599.999 299.997,599.999C134.423,599.999 -0.003,465.574 -0.003,299.999C-0.003,134.424 134.423,-0.001 299.997,-0.001ZM294.603,34.285C294.603,34.285 288.79,154.41 349.717,221.674C410.645,288.937 432.362,373.245 433.491,400.244C434.62,427.243 433.804,541.652 316.649,565.587C188.429,570.159 176.196,451.132 168.943,415.676C161.69,380.22 168.367,299.407 204.216,239.31C234.533,178.292 240.355,162.572 243.898,142.309C249.286,120.204 244.813,100.672 294.603,34.285ZM318.853,285.606C318.853,285.606 353.904,326.649 360.74,353.948C367.577,381.247 363.295,418.619 349.717,422.29C336.139,425.96 337.057,402.039 338.695,395.835C340.333,389.631 338.236,342.595 336.49,338.516C334.742,334.438 315.361,299.579 318.853,285.606Z" style="fill:rgb(210,240,241);"/>
        </g>
    </g>
</svg>
